lightbulbs/svg/bulb_inc.svg

<svg xmlns="http://www.w3.org/2000/svg" xmlns:xlink="http://www.w3.org/1999/xlink" viewBox="0 0 41 75" version="1.1" x="0px" y="0px"><title>Group 223</title><desc>Created with Sketch.</desc><g stroke="none" stroke-width="1" fill="none" fill-rule="evenodd"><g transform="translate(-250.000000, -3047.000000)" fill="#000000"><g transform="translate(250.000000, 3047.000000)"><path d="M13.018,54.003 L27.018,54.003 L27.018,44.003 L13.018,44.003 L13.018,54.003 Z M28.018,56.003 L12.018,56.003 C11.466,56.003 11.018,55.556 11.018,55.003 L11.018,43.003 C11.018,42.451 11.466,42.003 12.018,42.003 L28.018,42.003 C28.57,42.003 29.018,42.451 29.018,43.003 L29.018,55.003 C29.018,55.556 28.57,56.003 28.018,56.003 L28.018,56.003 Z"/><path d="M16.0178,56.0035 L16.9178,57.2035 C17.2938,57.7045 17.8918,58.0035 18.5178,58.0035 L21.5178,58.0035 C22.1438,58.0035 22.7418,57.7045 23.1178,57.2035 L24.0178,56.0035 L16.0178,56.0035 Z M21.5178,60.0035 L18.5178,60.0035 C17.2648,60.0035 16.0688,59.4045 15.3178,58.4025 L13.2178,55.6035 C12.9908,55.3005 12.9538,54.8955 13.1228,54.5565 C13.2928,54.2175 13.6388,54.0035 14.0178,54.0035 L26.0178,54.0035 C26.3968,54.0035 26.7428,54.2175 26.9128,54.5565 C27.0818,54.8955 27.0448,55.3005 26.8178,55.6035 L24.7178,58.4025 C23.9668,59.4045 22.7708,60.0035 21.5178,60.0035 L21.5178,60.0035 Z"/><path d="M19.0178,48.0035 L12.0178,48.0035 C11.4658,48.0035 11.0178,47.5565 11.0178,47.0035 C11.0178,46.4505 11.4658,46.0035 12.0178,46.0035 L19.0178,46.0035 C19.5698,46.0035 20.0178,46.4505 20.0178,47.0035 C20.0178,47.5565 19.5698,48.0035 19.0178,48.0035"/><path d="M28.0178,52.0035 L21.0178,52.0035 C20.4658,52.0035 20.0178,51.5565 20.0178,51.0035 C20.0178,50.4505 20.4658,50.0035 21.0178,50.0035 L28.0178,50.0035 C28.5698,50.0035 29.0178,50.4505 29.0178,51.0035 C29.0178,51.5565 28.5698,52.0035 28.0178,52.0035"/><path d="M28.0178,48.0035 L24.0178,48.0035 C23.4658,48.0035 23.0178,47.5565 23.0178,47.0035 C23.0178,46.4505 23.4658,46.0035 24.0178,46.0035 L28.0178,46.0035 C28.5698,46.0035 29.0178,46.4505 29.0178,47.0035 C29.0178,47.5565 28.5698,48.0035 28.0178,48.0035"/><path d="M16.0178,52.0035 L12.0178,52.0035 C11.4658,52.0035 11.0178,51.5565 11.0178,51.0035 C11.0178,50.4505 11.4658,50.0035 12.0178,50.0035 L16.0178,50.0035 C16.5698,50.0035 17.0178,50.4505 17.0178,51.0035 C17.0178,51.5565 16.5698,52.0035 16.0178,52.0035"/><path d="M12.8088,42.0035 L27.2268,42.0035 C27.9968,39.1405 29.7868,36.2635 32.3298,33.8245 C36.5028,29.8215 38.5348,24.2085 37.9038,18.4235 C36.9758,9.9195 30.1348,3.0645 21.6368,2.1215 C21.1318,2.0655 20.5938,2.0305 19.9938,2.0175 C19.4418,2.0305 18.9038,2.0655 18.3978,2.1215 C9.9008,3.0645 3.0588,9.9195 2.1318,18.4235 C1.5008,24.2085 3.5328,29.8215 7.7058,33.8245 C10.2488,36.2635 12.0388,39.1405 12.8088,42.0035 M28.0178,44.0035 L12.0178,44.0035 C11.5418,44.0035 11.1318,43.6685 11.0378,43.2015 C10.4858,40.4735 8.8108,37.6555 6.3218,35.2685 C1.6968,30.8325 -0.5552,24.6135 0.1428,18.2065 C1.1718,8.7785 8.7568,1.1785 18.1778,0.1335 C18.7418,0.0705 19.3358,0.0325 19.9938,0.0175 C20.6998,0.0325 21.2938,0.0705 21.8568,0.1335 C31.2788,1.1785 38.8638,8.7785 39.8918,18.2065 C40.5908,24.6135 38.3388,30.8325 33.7138,35.2685 C31.2248,37.6555 29.5498,40.4735 28.9978,43.2015 C28.9038,43.6685 28.4938,44.0035 28.0178,44.0035"/><path d="M14.0178,21.0035 C12.9148,21.0035 12.0178,21.9005 12.0178,23.0035 C12.0178,24.1065 12.9148,25.0035 14.0178,25.0035 L16.0178,25.0035 L16.0178,23.0035 C16.0178,21.9005 15.1208,21.0035 14.0178,21.0035 L14.0178,21.0035 Z M24.0178,25.0035 L26.0178,25.0035 C27.1208,25.0035 28.0178,24.1065 28.0178,23.0035 C28.0178,21.9005 27.1208,21.0035 26.0178,21.0035 C24.9148,21.0035 24.0178,21.9005 24.0178,23.0035 L24.0178,25.0035 Z M23.0178,44.0035 C22.4658,44.0035 22.0178,43.5565 22.0178,43.0035 L22.0178,27.0035 L18.0178,27.0035 L18.0178,43.0035 C18.0178,43.5565 17.5698,44.0035 17.0178,44.0035 C16.4658,44.0035 16.0178,43.5565 16.0178,43.0035 L16.0178,27.0035 L14.0178,27.0035 C11.8118,27.0035 10.0178,25.2095 10.0178,23.0035 C10.0178,20.7975 11.8118,19.0035 14.0178,19.0035 C16.2238,19.0035 18.0178,20.7975 18.0178,23.0035 L18.0178,25.0035 L22.0178,25.0035 L22.0178,23.0035 C22.0178,20.7975 23.8118,19.0035 26.0178,19.0035 C28.2238,19.0035 30.0178,20.7975 30.0178,23.0035 C30.0178,25.2095 28.2238,27.0035 26.0178,27.0035 L24.0178,27.0035 L24.0178,43.0035 C24.0178,43.5565 23.5698,44.0035 23.0178,44.0035 L23.0178,44.0035 Z"/></g></g></g><text x="0" y="75" fill="#000000" font-size="5px" font-weight="bold" font-family="'Helvetica Neue', Helvetica, Arial-Unicode, Arial, Sans-serif">Created by Oliviu Stoian</text><text x="0" y="80" fill="#000000" font-size="5px" font-weight="bold" font-family="'Helvetica Neue', Helvetica, Arial-Unicode, Arial, Sans-serif">from the Noun Project</text></svg>

<?xml version="1.0" encoding="UTF-8" standalone="no"?>
<svg
   xmlns:dc="http://purl.org/dc/elements/1.1/"
   xmlns:cc="http://creativecommons.org/ns#"
   xmlns:rdf="http://www.w3.org/1999/02/22-rdf-syntax-ns#"
   xmlns:svg="http://www.w3.org/2000/svg"
   xmlns="http://www.w3.org/2000/svg"
   height="59.986"
   width="39.998993"
   id="svg2"
   y="0px"
   x="0px"
   version="1.1"
   viewBox="0 0 39.998993 59.986">
  <metadata
     id="metadata38">
    <rdf:RDF>
      <cc:Work
         rdf:about="">
        <dc:format>image/svg+xml</dc:format>
        <dc:type
           rdf:resource="http://purl.org/dc/dcmitype/StillImage" />
        <dc:title>Group 223</dc:title>
      </cc:Work>
    </rdf:RDF>
  </metadata>
  <defs
     id="defs36" />
  <title
     id="title4">Group 223</title>
  <desc
     id="desc6">Created with Sketch.</desc>
  <g
     style="fill:none;fill-rule:evenodd;stroke:none;stroke-width:1"
     transform="translate(-0.0179622,-0.0175)"
     id="g8">
    <g
       style="fill:#000000"
       id="g10"
       transform="translate(-250,-3047)">
      <g
         id="g12"
         transform="translate(250,3047)">
        <path
           id="path14"
           d="m 13.018,54.003 14,0 0,-10 -14,0 0,10 z m 15,2 -16,0 c -0.552,0 -1,-0.447 -1,-1 l 0,-12 c 0,-0.552 0.448,-1 1,-1 l 16,0 c 0.552,0 1,0.448 1,1 l 0,12 c 0,0.553 -0.448,1 -1,1 l 0,0 z" />
        <path
           id="path16"
           d="m 16.0178,56.0035 0.9,1.2 c 0.376,0.501 0.974,0.8 1.6,0.8 l 3,0 c 0.626,0 1.224,-0.299 1.6,-0.8 l 0.9,-1.2 -8,0 z m 5.5,4 -3,0 c -1.253,0 -2.449,-0.599 -3.2,-1.601 l -2.1,-2.799 c -0.227,-0.303 -0.264,-0.708 -0.095,-1.047 0.17,-0.339 0.516,-0.553 0.895,-0.553 l 12,0 c 0.379,0 0.725,0.214 0.895,0.553 0.169,0.339 0.132,0.744 -0.095,1.047 l -2.1,2.799 c -0.751,1.002 -1.947,1.601 -3.2,1.601 l 0,0 z" />
        <path
           id="path18"
           d="m 19.0178,48.0035 -7,0 c -0.552,0 -1,-0.447 -1,-1 0,-0.553 0.448,-1 1,-1 l 7,0 c 0.552,0 1,0.447 1,1 0,0.553 -0.448,1 -1,1" />
        <path
           id="path20"
           d="m 28.0178,52.0035 -7,0 c -0.552,0 -1,-0.447 -1,-1 0,-0.553 0.448,-1 1,-1 l 7,0 c 0.552,0 1,0.447 1,1 0,0.553 -0.448,1 -1,1" />
        <path
           id="path22"
           d="m 28.0178,48.0035 -4,0 c -0.552,0 -1,-0.447 -1,-1 0,-0.553 0.448,-1 1,-1 l 4,0 c 0.552,0 1,0.447 1,1 0,0.553 -0.448,1 -1,1" />
        <path
           id="path24"
           d="m 16.0178,52.0035 -4,0 c -0.552,0 -1,-0.447 -1,-1 0,-0.553 0.448,-1 1,-1 l 4,0 c 0.552,0 1,0.447 1,1 0,0.553 -0.448,1 -1,1" />
        <path
           id="path26"
           d="m 12.8088,42.0035 14.418,0 c 0.77,-2.863 2.56,-5.74 5.103,-8.179 4.173,-4.003 6.205,-9.616 5.574,-15.401 -0.928,-8.504 -7.769,-15.359 -16.267,-16.302 -0.505,-0.056 -1.043,-0.091 -1.643,-0.104 -0.552,0.013 -1.09,0.048 -1.596,0.104 -8.497,0.943 -15.339,7.798 -16.266,16.302 -0.631,5.785 1.401,11.398 5.574,15.401 2.543,2.439 4.333,5.316 5.103,8.179 m 15.209,2 -16,0 c -0.476,0 -0.886,-0.335 -0.98,-0.802 -0.552,-2.728 -2.227,-5.546 -4.716,-7.933 -4.625,-4.436 -6.877,-10.655 -6.179,-17.062 1.029,-9.428 8.614,-17.028 18.035,-18.073 0.564,-0.063 1.158,-0.101 1.816,-0.116 0.706,0.015 1.3,0.053 1.863,0.116 9.422,1.045 17.007,8.645 18.035,18.073 0.699,6.407 -1.553,12.626 -6.178,17.062 -2.489,2.387 -4.164,5.205 -4.716,7.933 -0.094,0.467 -0.504,0.802 -0.98,0.802" />
        <path
           id="path28"
           d="m 14.0178,21.0035 c -1.103,0 -2,0.897 -2,2 0,1.103 0.897,2 2,2 l 2,0 0,-2 c 0,-1.103 -0.897,-2 -2,-2 l 0,0 z m 10,4 2,0 c 1.103,0 2,-0.897 2,-2 0,-1.103 -0.897,-2 -2,-2 -1.103,0 -2,0.897 -2,2 l 0,2 z m -1,19 c -0.552,0 -1,-0.447 -1,-1 l 0,-16 -4,0 0,16 c 0,0.553 -0.448,1 -1,1 -0.552,0 -1,-0.447 -1,-1 l 0,-16 -2,0 c -2.206,0 -4,-1.794 -4,-4 0,-2.206 1.794,-4 4,-4 2.206,0 4,1.794 4,4 l 0,2 4,0 0,-2 c 0,-2.206 1.794,-4 4,-4 2.206,0 4,1.794 4,4 0,2.206 -1.794,4 -4,4 l -2,0 0,16 c 0,0.553 -0.448,1 -1,1 l 0,0 z" />
      </g>
    </g>
  </g>
  <text
     style="font-weight:bold;font-size:5px;font-family:'Helvetica Neue', Helvetica, Arial-Unicode, Arial, Sans-serif;fill:#000000"
     id="text30"
     font-weight="bold"
     font-size="5px"
     y="75"
     x="6.2157557e-10">Created by Oliviu Stoian</text>
  <text
     style="font-weight:bold;font-size:5px;font-family:'Helvetica Neue', Helvetica, Arial-Unicode, Arial, Sans-serif;fill:#000000"
     id="text32"
     font-weight="bold"
     font-size="5px"
     y="80"
     x="6.2157557e-10">from the Noun Project</text>
</svg>
